X: 96
T: Stabat mater
C: Gaspar van Weerbeke
%%abc-version 2.0
%%abcx-abcm2ps-target-version 5.9.1 (29 Sep 2008)
%%abc-creator hum2abc beta
%%abcx-conversion-date 2022/03/06 13:05:54
%%abc-copyright Copyright 2008, Pavanello, Agnese
%%abc-edited-by Mair-Gruber, Roland
%%humdrum-veritas 2226381102
%%humdrum-veritas-data 1287539293
%%linebreak <none>
%%barnumbers 0
L: 1/4
M: 3/2
N: Derived from Gas0420-Stabat_mater.krn
V: 1 clef=treble
V: 2 clef=treble-8
V: 3 clef=treble-8
V: 4 clef=bass
V: 5 clef=bass
K: C
[V:1] E4E2 | 
[V:2] B4c2 | 
[V:3] z6 | 
[V:4] E,4E,2 | 
[V:5] z6 | 
[V:1] G4G3/F/ | 
[V:2] B3e2d/c/ | 
[V:3] z6 | 
[V:4] E,4C,2 | 
[V:5] z6 | 
[V:1] D2DDD3/E/ | 
[V:2] B2BBB3/c/ | 
[V:3] z6 | 
[V:4] G,2G,G,2E, | 
[V:5] z6 | 
[V:1] F2F2FF | 
[V:2] d2d>cA2 | 
[V:3] z6 | 
[V:4] D,4D,D, | 
[V:5] z6 | 
[V:1] G2G>FD2 | 
[V:2] G2Bc2B | 
[V:3] z6 | 
[V:4] E,2>C,2G,2 | 
[V:5] z6 | 
[V:1] CDCE2D | 
[V:2] cBAB2A | 
[V:3] z6 | 
[V:4] A,G,A,E,F,2 | 
[V:5] z6 | 
[V:1] E2GGA2 | 
[V:2] B2ccc2 | 
[V:3] z6 | 
[V:4] E,2C,C,F,2 | 
[V:5] z6 | 
[V:1] GcBA2^G | 
[V:2] c2dAB2 | 
[V:3] z6 | 
[V:4] E,A,G,F,E,2 | 
[V:5] z6 | 
[V:1] A2z2z2 | 
[V:2] A2z2FF | 
[V:3] z6 | 
[V:4] F,F,G,A,A,G,/F,/ | 
[V:5] z6 | 
[V:1] z2FFGA | 
[V:2] GAAG/F/EC | 
[V:3] z6 | 
[V:4] E,F,D,2z2 | 
[V:5] z6 | 
[V:1] AG/F/ECD2 | 
[V:2] D2Cc2B | 
[V:3] z6 | 
[V:4] z6 | 
[V:5] z6 | 
[V:1] C2zc2B | 
[V:2] c/B/A/G/A2G2 | 
[V:3] z6 | 
[V:4] z6 | 
[V:5] z6 | 
[V:1] c/B/A/G/A2G2 | 
[V:2] zG2FG/F/E/D/ | 
[V:3] z6 | 
[V:4] z6 | 
[V:5] z6 | 
[V:1] zG2FG/F/E/D/ | 
[V:2] E2D2zd- | 
[V:3] z6 | 
[V:4] z6 | 
[V:5] z6 | 
[V:1] E2DA2G | 
[V:2] dcd/c/B/A/B2 | 
[V:3] z6 | 
[V:4] z6 | 
[V:5] z6 | 
[V:1] AG/FE/E2D | 
[V:2] AA2GF2 | 
[V:3] z6 | 
[V:4] z6 | 
[V:5] z6 | 
[V:1] E4z2 | 
[V:2] E4z2 | 
[V:3] z6 | 
[V:4] E,4G,2 | 
[V:5] A,,2C,2B,,2 | 
[V:1] z6 | 
[V:2] z6 | 
[V:3] z6 | 
[V:4] A,2G,2F,2 | 
[V:5] A,,>B,, C,/D,/E,2D, | 
[V:1] z6 | 
[V:2] z6 | 
[V:3] z6 | 
[V:4] E,G,2E,D,2 | 
[V:5] C,E,>D,C,2B,, | 
[V:1] z6 | 
[V:2] z6 | 
[V:3] z6 | 
[V:4] C,2E,2D,G, | 
[V:5] C,4G,,2 | 
[V:1] z6 | 
[V:2] z6 | 
[V:3] z6 | 
[V:4] F,E,2G,C,C- | 
[V:5] A,,2C,2E,2 | 
[V:1] z6 | 
[V:2] z6 | 
[V:3] z6 | 
[V:4] CB,2A,2^G, | 
[V:5] A,,G,,A,,2B,,2 | 
[V:1] z6 | 
[V:2] z6 | 
[V:3] z6 | 
[V:4] A,2B,2A,C- | 
[V:5] A,,>G,,E,,2zA,,- | 
[V:1] z6 | 
[V:2] z6 | 
[V:3] z6 | 
[V:4] CB,A,G,/F,<E,C,/ | 
[V:5] A,,G,,A,,B,,C,3/B,,/ | 
[V:1] z6 | 
[V:2] z6 | 
[V:3] z6 | 
[V:4] D,/C,/F,2E,2D, | 
[V:5] G,,A,,E,,2F,,2 | 
[V:1] G2GG2E- | 
[V:2] B2BB2c | 
[V:3] z6 | 
[V:4] E,6- | 
[V:5] E,,2E,,>F,,G,,A,,- | 
[V:1] EGEA2G | 
[V:2] cBc2B2 | 
[V:3] z6 | 
[V:4] E,6 | 
[V:5] A,,G,,A,,2E,,2 | 
[V:1] FE2G>FE | 
[V:2] AAc2Gc- | 
[V:3] z6 | 
[V:4] z6 | 
[V:5] z6 | 
[V:1] D2A,/B,/C/D/EF | 
[V:2] cBc>B A/G/A- | 
[V:3] z6 | 
[V:4] z6 | 
[V:5] z6 | 
[V:1] FG2E2D | 
[V:2] AE2GF2 | 
[V:3] z6 | 
[V:4] z6 | 
[V:5] z6 | 
[V:1] E4z2 | 
[V:2] E2B2cA- | 
[V:3] E6- | 
[V:4] z2z2A,2 | 
[V:5] z2z2A,,2 | 
[V:1] E2E2G2 | 
[V:2] AG/F/E2B2 | 
[V:3] E6 | 
[V:4] C2A,2G,2 | 
[V:5] A,,2A,,2E,,2 | 
[V:1] A2c3c | 
[V:2] c2c3c | 
[V:3] E6 | 
[V:4] C,C,C,/D,/E,/F,/G,2 | 
[V:5] A,,2>A,,2C,2 | 
[V:1] B2B2B2 | 
[V:2] d2>d2d2 | 
[V:3] D4G2 | 
[V:4] G,4D,2 | 
[V:5] G,,4G,,2 | 
[V:1] AF2A2G/F/ | 
[V:2] d6 | 
[V:3] A6 | 
[V:4] F,D,F,2zD, | 
[V:5] D,2D,3D, | 
[V:1] EG2GA2 | 
[V:2] GGc2A2 | 
[V:3] c6 | 
[V:4] E,E,>D,E,F,2 | 
[V:5] C,C,C,2F,,2 | 
[V:1] G2zAAc- | 
[V:2] eee/d/c/B/AA | 
[V:3] c6- | 
[V:4] C,E,2F,F,A,- | 
[V:5] zC,>B,,A,,/G,,/F,,F,, | 
[V:1] cABGG2 | 
[V:2] FFD2d2 | 
[V:3] c2B4 | 
[V:4] A,A,G,>F,D,2 | 
[V:5] F,,F,,G,,G,,G,,2 | 
[V:1] zGAG2A | 
[V:2] e2e2eA | 
[V:3] c6- | 
[V:4] C,2C,E,2F, | 
[V:5] zC,A,,C,2F,, | 
[V:1] GAG2A2 | 
[V:2] e2e2A2 | 
[V:3] c6 | 
[V:4] E,C,E,2F,2 | 
[V:5] C,A,,C,2F,,2 | 
[V:1] AAB2c3/B/ | 
[V:2] z2DDA3/G/ | 
[V:3] c2d2c2 | 
[V:4] A,A,G,2E,2 | 
[V:5] z2G,,G,,A,,3/B,,/ | 
[V:1] GAAG2^F | 
[V:2] EFABd2 | 
[V:3] cc2BA2 | 
[V:4] C,2F,D,/E,/F,D, | 
[V:5] C,F,,F,,G,,D,2 | 
[V:1] G2EG2F | 
[V:2] B2cc2d | 
[V:3] G4z2 | 
[V:4] D,2C,2C,F, | 
[V:5] G,,2zC,E,D, | 
[V:1] EC/D/ E/F/E2D | 
[V:2] e2c2A3/G/ | 
[V:3] z6 | 
[V:4] G,A,2G,F,2 | 
[V:5] C,A,,2C,D,2 | 
[V:1] E4z2 | 
[V:2] B4d2 | 
[V:3] G6- | 
[V:4] E,4B,B, | 
[V:5] z6 | 
[V:1] GGG>AB2 | 
[V:2] ee2ed2 | 
[V:3] G6 | 
[V:4] C>B,G,C,D,2 | 
[V:5] C,C,C,2B,,2 | 
[V:1] c2cc>BA | 
[V:2] cA>GF/E/F2 | 
[V:3] A4c2 | 
[V:4] E,2z2C,2 | 
[V:5] A,,C,>B,,A,,/G,,/A,,2 | 
[V:1] D2zG2A | 
[V:2] G2d2cc | 
[V:3] B4z2 | 
[V:4] D,4E,F, | 
[V:5] G,,4C,A,, | 
[V:1] B2>G2GF/E/ | 
[V:2] Bd2cBc | 
[V:3] G6 | 
[V:4] G,>F,D,E,z2 | 
[V:5] G,,2B,,C,E,2 | 
[V:1] FA2G2^F | 
[V:2] d6- | 
[V:3] A6 | 
[V:4] zD,F,G,A,2 | 
[V:5] D,4D,2 | 
[V:1] G4z2 | 
[V:2] d4d2 | 
[V:3] G4G2 | 
[V:4] B,2z2z2 | 
[V:5] G,,4z2 | 
[V:1] z6 | 
[V:2] cd2BA2 | 
[V:3] AB>AG2^F | 
[V:4] z6 | 
[V:5] z6 | 
[V:1] z6 | 
[V:2] G/A/B/c/dedc/B/ | 
[V:3] G4G2 | 
[V:4] z6 | 
[V:5] z6 | 
[V:1] z6 | 
[V:2] ce2d2^c | 
[V:3] AGAFE2 | 
[V:4] z6 | 
[V:5] z6 | 
[V:1] F2>F2G2 | 
[V:2] d2d2Bc- | 
[V:3] D4z2 | 
[V:4] z6 | 
[V:5] z6 | 
[V:1] Ac2B>AG/F/ | 
[V:2] cA2d2e- | 
[V:3] z6 | 
[V:4] z6 | 
[V:5] z6 | 
[V:1] E>FGA2^G | 
[V:2] e/d/cBAB2 | 
[V:3] z6 | 
[V:4] z6 | 
[V:5] z6 | 
[V:1] A2zF2E | 
[V:2] A3d2c | 
[V:3] z6 | 
[V:4] z6 | 
[V:5] z6 | 
[V:1] F2E4 | 
[V:2] d2A4 | 
[V:3] z6 | 
[V:4] z6 | 
[V:5] z6 | 
[V:1] DEDG2^F | 
[V:2] BcBGA2 | 
[V:3] z6 | 
[V:4] z6 | 
[V:5] z6 | 
[V:1] G2E>FGG | 
[V:2] Gc2ABc | 
[V:3] z6 | 
[V:4] z6 | 
[V:5] z6 | 
[V:1] AG/FE/E2D | 
[V:2] FG/AG/EF2 | 
[V:3] z6 | 
[V:4] z6 | 
[V:5] z6 | 
[V:1] E4z2 | 
[V:2] E4z2 | 
[V:3] z6 | 
[V:4] A,4G,A,- | 
[V:5] A,,4C,2 | 
[V:1] z6 | 
[V:2] z6 | 
[V:3] z6 | 
[V:4] A,/G,/F,E,2G,2 | 
[V:5] D,2C,2zE, | 
[V:1] z6 | 
[V:2] z6 | 
[V:3] z6 | 
[V:4] A,C2B,>A,G,/F,/ | 
[V:5] F,E,/D,/C,G,,>A,,B,,- | 
[V:1] z6 | 
[V:2] z6 | 
[V:3] z6 | 
[V:4] G,>F,D,2C,C | 
[V:5] B,,/A,,//G,,//C,2B,,A,,2 | 
[V:1] z6 | 
[V:2] z6 | 
[V:3] z6 | 
[V:4] B,A,>G,F,/E,/D,G, | 
[V:5] G,,F,,C,A,,D,B,, | 
[V:1] z6 | 
[V:2] z6 | 
[V:3] z6 | 
[V:4] E,F,2E,2D, | 
[V:5] C,A,,2G,,F,,2 | 
[V:1] G4G2 | 
[V:2] B4c2 | 
[V:3] G6 | 
[V:4] E,4C,2- | 
[V:5] E,,4z2 | 
[V:1] c2>c2A2 | 
[V:2] ccfff3/e/ | 
[V:3] A6 | 
[V:4] C,C,C,C,F,F, | 
[V:5] F,,2F,,F,,2F,, | 
[V:1] AA2G/F/G2 | 
[V:2] c2f2e2 | 
[V:3] c4c2 | 
[V:4] F,3E,/D,/C,2 | 
[V:5] F,,2>F,,2C,2 | 
[V:1] G2GG2A | 
[V:2] eee>d c/B/A | 
[V:3] c4c2 | 
[V:4] C,2C,2E,F, | 
[V:5] z6 | 
[V:1] A>GAc2B | 
[V:2] zAA2D2 | 
[V:3] c4d2- | 
[V:4] F,2E,2G,2 | 
[V:5] F,,F,,A,,2G,,G,, | 
[V:1] B>Ac2A2 | 
[V:2] zGE2F2 | 
[V:3] d2c4 | 
[V:4] G,2C,3C, | 
[V:5] G,,2A,,2F,,2 | 
[V:1] G>FDG2^F | 
[V:2] D2d2dd- | 
[V:3] B4A2 | 
[V:4] G,2D,2z2 | 
[V:5] G,,4D,2 | 
[V:1] G2G2EG- | 
[V:2] dB2e>dc/B/ | 
[V:3] G4G2- | 
[V:4] z6 | 
[V:5] E,4C,2 | 
[V:1] GF/E/F4 | 
[V:2] c2d4 | 
[V:3] G2A4 | 
[V:4] z2z2A,2 | 
[V:5] E,2D,4 | 
[V:1] zAA2EF | 
[V:2] e2ee/d/ c/B/A | 
[V:3] c4A2 | 
[V:4] A,>G,E,A,>G,F,/E,/ | 
[V:5] A,,2A,,2C,D, | 
[V:1] G2c>BAG/F/ | 
[V:2] d2c2c2- | 
[V:3] B2A4 | 
[V:4] D,G,E,E,E,2 | 
[V:5] G,,2A,,2A,,A,, | 
[V:1] E2C/D/E/F<GA/ | 
[V:2] ccc2B2- | 
[V:3] G6 | 
[V:4] z2z2D,2 | 
[V:5] C,3B,,/A,,/G,,2 | 
[V:1] BcBGA2 | 
[V:2] BG>FE2D | 
[V:3] G4F2 | 
[V:4] E,3B,,2A,, | 
[V:5] E,,4F,,2 | 
[V:1] !fermata!G6 ||  
[V:2] !fermata!E6 ||  
[V:3] !fermata!G6 ||  
[V:4] !fermata!B,,6 ||  
[V:5] !fermata!E,,6 ||  
[V:1] [M:2/2]z4 | 
[V:2] [M:2/2]E2E3/F/ | 
[V:3] [M:2/2]z4 | 
[V:4] [M:2/2]z4 | 
[V:5] [M:2/2]z4 | 
[V:1] E2E3/F/ | 
[V:2] GA2c | 
[V:3] z4 | 
[V:4] z4 | 
[V:5] z4 | 
[V:1] GA2c | 
[V:2] BAc3/B/ | 
[V:3] z4 | 
[V:4] z4 | 
[V:5] z4 | 
[V:1] BAc3/B/ | 
[V:2] GAF2 | 
[V:3] z4 | 
[V:4] z4 | 
[V:5] z4 | 
[V:1] GAF2 | 
[V:2] EF>GA/B/ | 
[V:3] z4 | 
[V:4] z4 | 
[V:5] z4 | 
[V:1] E4 | 
[V:2] c4 | 
[V:3] z4 | 
[V:4] z4 | 
[V:5] z4 | 
[V:1] E3E | 
[V:2] c3c | 
[V:3] G4 | 
[V:4] E,3E, | 
[V:5] C,3C, | 
[V:1] E2G2 | 
[V:2] c2c2 | 
[V:3] G4 | 
[V:4] G,2E,2 | 
[V:5] C,2C,2 | 
[V:1] F2F2 | 
[V:2] c2A2 | 
[V:3] A4 | 
[V:4] C,2C,2 | 
[V:5] F,,2F,,2 | 
[V:1] D4 | 
[V:2] D2G3/A/ | 
[V:3] B4 | 
[V:4] G,4 | 
[V:5] G,,4 | 
[V:1] D4 | 
[V:2] B4 | 
[V:3] G4 | 
[V:4] D,4 | 
[V:5] G,,4 | 
[V:1] C/D/E/F/GA | 
[V:2] A2Bc | 
[V:3] z4 | 
[V:4] z4 | 
[V:5] z4 | 
[V:1] B2cA- | 
[V:2] d2Ac- | 
[V:3] z4 | 
[V:4] z4 | 
[V:5] z4 | 
[V:1] AG/F/ E/D/F- | 
[V:2] cB/A/ G/F/A- | 
[V:3] z4 | 
[V:4] z4 | 
[V:5] z4 | 
[V:1] FE2D | 
[V:2] AGF2 | 
[V:3] z4 | 
[V:4] z4 | 
[V:5] z4 | 
[V:1] E4 | 
[V:2] E4 | 
[V:3] z4 | 
[V:4] z4 | 
[V:5] z4 | 
[V:1] E2E2 | 
[V:2] A2A2 | 
[V:3] E4- | 
[V:4] C,2C,2 | 
[V:5] A,,2A,,2 | 
[V:1] G4 | 
[V:2] B4 | 
[V:3] E4 | 
[V:4] B,,4 | 
[V:5] G,,4 | 
[V:1] A4 | 
[V:2] A2c2 | 
[V:3] F4 | 
[V:4] C,2F,2 | 
[V:5] F,,4 | 
[V:1] G2B2 | 
[V:2] c2d2- | 
[V:3] E2D2 | 
[V:4] G,4 | 
[V:5] C,2B,,2 | 
[V:1] c2c/B/A/G/ | 
[V:2] dc/B/c2 | 
[V:3] E4 | 
[V:4] A,4 | 
[V:5] A,,2A,,2 | 
[V:1] F4 | 
[V:2] d4 | 
[V:3] D4 | 
[V:4] F,4 | 
[V:5] z4 | 
[V:1] z4 | 
[V:2] z4 | 
[V:3] z4 | 
[V:4] z2G,2 | 
[V:5] D,2B,,C,- | 
[V:1] z4 | 
[V:2] z4 | 
[V:3] z4 | 
[V:4] E,F,2D, | 
[V:5] C,A,,D,2 | 
[V:1] z4 | 
[V:2] z4 | 
[V:3] z4 | 
[V:4] G,2E,F, | 
[V:5] B,,C,2A,, | 
[V:1] z4 | 
[V:2] z4 | 
[V:3] z4 | 
[V:4] D,G,2^F, | 
[V:5] B,,C,A,,2 | 
[V:1] z4 | 
[V:2] z4 | 
[V:3] z4 | 
[V:4] G,4 | 
[V:5] G,,4 | 
[V:1] G2G2 | 
[V:2] B2B2 | 
[V:3] G4 | 
[V:4] D,2D,2 | 
[V:5] G,,2G,,2 | 
[V:1] E4 | 
[V:2] c>BG2 | 
[V:3] G4 | 
[V:4] E,G,>F,E,/D,/ | 
[V:5] C,4 | 
[V:1] E4 | 
[V:2] c3B | 
[V:3] A4 | 
[V:4] C,4 | 
[V:5] A,,4 | 
[V:1] ECE3/F/ | 
[V:2] A>GA2 | 
[V:3] c4 | 
[V:4] C,A,,C,3/D,/ | 
[V:5] A,,2A,,2 | 
[V:1] G3F/E/ | 
[V:2] G4 | 
[V:3] B4- | 
[V:4] E,4 | 
[V:5] E,,4 | 
[V:1] D4 | 
[V:2] z4 | 
[V:3] B4 | 
[V:4] z4 | 
[V:5] G,,2G,,2 | 
[V:1] z4 | 
[V:2] z2G2 | 
[V:3] z4 | 
[V:4] z4 | 
[V:5] A,,2G,,3/A,,/ | 
[V:1] z4 | 
[V:2] G2A2 | 
[V:3] z4 | 
[V:4] z4 | 
[V:5] B,,C,2D, | 
[V:1] z4 | 
[V:2] G2Bc- | 
[V:3] z4 | 
[V:4] z4 | 
[V:5] E,>F,G,F,- | 
[V:1] z4 | 
[V:2] cde/d/c/B/ | 
[V:3] z4 | 
[V:4] z4 | 
[V:5] F,E,/D,/C,2 | 
[V:1] z4 | 
[V:2] A/G/c2B | 
[V:3] z4 | 
[V:4] z4 | 
[V:5] F,E,D,2 | 
[V:1] E3E | 
[V:2] c4 | 
[V:3] G4- | 
[V:4] z4 | 
[V:5] C,4 | 
[V:1] G>FDE- | 
[V:2] z4 | 
[V:3] G4 | 
[V:4] z4 | 
[V:5] z4 | 
[V:1] EF/E/ F/E/F- | 
[V:2] z4 | 
[V:3] A4 | 
[V:4] z4 | 
[V:5] z4 | 
[V:1] F/E/D/C/D2 | 
[V:2] z4 | 
[V:3] B4 | 
[V:4] z4 | 
[V:5] z4 | 
[V:1] E2GA- | 
[V:2] z4 | 
[V:3] c4 | 
[V:4] z4 | 
[V:5] z4 | 
[V:1] A/G/^F/E/F2 | 
[V:2] z4 | 
[V:3] A4 | 
[V:4] z4 | 
[V:5] D,2D,2 | 
[V:1] G4 | 
[V:2] z4 | 
[V:3] G4 | 
[V:4] B,2B,2 | 
[V:5] E,2E,2 | 
[V:1] z4 | 
[V:2] z4 | 
[V:3] z4 | 
[V:4] C2C/B,/A,/G,/ | 
[V:5] C,2A,,3/B,,/ | 
[V:1] z4 | 
[V:2] z4 | 
[V:3] z4 | 
[V:4] A,>G, E,/F,/G,/A,/ | 
[V:5] C,D,C,E,- | 
[V:1] z4 | 
[V:2] z4 | 
[V:3] z4 | 
[V:4] B,A,2^G, | 
[V:5] E,C,B,,2 | 
[V:1] E3E | 
[V:2] ccA/B/c/d/ | 
[V:3] E4- | 
[V:4] A,4 | 
[V:5] A,,4 | 
[V:1] EEAA | 
[V:2] e/d/c/B/cc | 
[V:3] E4 | 
[V:4] A,A,A,A, | 
[V:5] A,,A,,A,,A,, | 
[V:1] A2A3/G/ | 
[V:2] ddd3/c/ | 
[V:3] F4- | 
[V:4] A,A,F,2 | 
[V:5] D,D,D,2 | 
[V:1] FE/D/C2 | 
[V:2] A2A2 | 
[V:3] F4 | 
[V:4] D,2C2 | 
[V:5] D,>C,A,,2 | 
[V:1] zDCE- | 
[V:2] DDEC | 
[V:3] G4 | 
[V:4] B,2C2 | 
[V:5] G,,G,,C,C, | 
[V:1] EGGG | 
[V:2] G2B3/c/ | 
[V:3] G4 | 
[V:4] B,2G,G, | 
[V:5] E,E,E,2 | 
[V:1] F>E D/C/D | 
[V:2] d>cA2 | 
[V:3] z4 | 
[V:4] A,>G,F,E,/D,/ | 
[V:5] D,4 | 
[V:1] CE2D | 
[V:2] c>B A/G/A | 
[V:3] z4 | 
[V:4] E,2F,2 | 
[V:5] A,,C,D,2 | 
[V:1] E2zE | 
[V:2] B2z2 | 
[V:3] z4 | 
[V:4] E,2zE, | 
[V:5] G,2E,C, | 
[V:1] DCB,E- | 
[V:2] z4 | 
[V:3] z4 | 
[V:4] G,A,B,C | 
[V:5] B,,A,,G,,A,,- | 
[V:1] ED/C/B,2 | 
[V:2] z4 | 
[V:3] z4 | 
[V:4] B,A,2^G, | 
[V:5] A,,/B,,/C,/D,/E,2 | 
[V:1] z2E2 | 
[V:2] e2c2 | 
[V:3] z4 | 
[V:4] A,4 | 
[V:5] A,,4 | 
[V:1] C2FF | 
[V:2] AAA3/B/ | 
[V:3] z4 | 
[V:4] z4 | 
[V:5] A,,2D,2 | 
[V:1] EEA2 | 
[V:2] ccc3/d/ | 
[V:3] z4 | 
[V:4] z4 | 
[V:5] C,C,F,F, | 
[V:1] G2GG | 
[V:2] e2ed/c/ | 
[V:3] z4 | 
[V:4] z4 | 
[V:5] E,2E,2 | 
[V:1] G>ABc- | 
[V:2] BcBe- | 
[V:3] z4 | 
[V:4] z4 | 
[V:5] E,E,2E, | 
[V:1] cB/A/GA | 
[V:2] ed/c/Be- | 
[V:3] z4 | 
[V:4] z4 | 
[V:5] E,E,E,2 | 
[V:1] BA2^G | 
[V:2] ecB2 | 
[V:3] z4 | 
[V:4] z4 | 
[V:5] E,2E,2 | 
[V:1] A4 | 
[V:2] A4 | 
[V:3] A4- | 
[V:4] A,,A,,A,,2 | 
[V:5] z4 | 
[V:1] EEFE | 
[V:2] z4 | 
[V:3] A4- | 
[V:4] C,2D,E, | 
[V:5] A,,A,,D,C, | 
[V:1] A/G/F/E/FF | 
[V:2] z4 | 
[V:3] A4- | 
[V:4] F,E,2D, | 
[V:5] F,,C,D,2 | 
[V:1] E4 | 
[V:2] z4 | 
[V:3] A4- | 
[V:4] C,2E,2 | 
[V:5] A,,4 | 
[V:1] z4 | 
[V:2] EEFE | 
[V:3] A4- | 
[V:4] E,A,2A, | 
[V:5] A,,A,,D,C, | 
[V:1] z4 | 
[V:2] A/G/F/E/FF | 
[V:3] A4 | 
[V:4] CCA,2 | 
[V:5] F,,C,D,F, | 
[V:1] z4 | 
[V:2] E4 | 
[V:3] G4- | 
[V:4] C4 | 
[V:5] C,4 | 
[V:1] DDED | 
[V:2] z4 | 
[V:3] G4- | 
[V:4] z4 | 
[V:5] G,,G,,C,B,, | 
[V:1] G/F/E/D/EE | 
[V:2] z4 | 
[V:3] G4 | 
[V:4] z4 | 
[V:5] G,,B,,C,2 | 
[V:1] F>EC2 | 
[V:2] z4 | 
[V:3] F4 | 
[V:4] A,2A,2 | 
[V:5] F,,4 | 
[V:1] GGEG | 
[V:2] BBcB | 
[V:3] E4- | 
[V:4] G,E,C,G, | 
[V:5] z4 | 
[V:1] G>GG2 | 
[V:2] e/d/c/B/cc | 
[V:3] E4 | 
[V:4] C,2z2 | 
[V:5] z4 | 
[V:1] F2FF | 
[V:2] d2AA | 
[V:3] D4- | 
[V:4] z4 | 
[V:5] z4 | 
[V:1] DFD/E/F/G/ | 
[V:2] BAdd | 
[V:3] D4- | 
[V:4] z4 | 
[V:5] z4 | 
[V:1] AG2^F | 
[V:2] d>cA2 | 
[V:3] D4 | 
[V:4] z4 | 
[V:5] z4 | 
[V:1] G4 | 
[V:2] B4 | 
[V:3] z4 | 
[V:4] G,2G,2 | 
[V:5] G,,2G,,2 | 
[V:1] E2E2 | 
[V:2] c2B2 | 
[V:3] G4 | 
[V:4] G,3G, | 
[V:5] C,2E,2 | 
[V:1] F2F2 | 
[V:2] d4 | 
[V:3] A4 | 
[V:4] F,2F,2 | 
[V:5] D,2D,2 | 
[V:1] E2GA- | 
[V:2] e2eA | 
[V:3] c4 | 
[V:4] G,3F, | 
[V:5] C,>D,E,F, | 
[V:1] A/B<cB/A | 
[V:2] e4 | 
[V:3] c4 | 
[V:4] E,C,E,2- | 
[V:5] C,2A,,2 | 
[V:1] B/A/G/F/G2 | 
[V:2] e4 | 
[V:3] B4 | 
[V:4] E,D,/C,/B,,2 | 
[V:5] E,,4 | 
[V:1] A4 | 
[V:2] e2c2 | 
[V:3] A4 | 
[V:4] C,4 | 
[V:5] A,,4 | 
[V:1] z4 | 
[V:2] A2G2 | 
[V:3] A2c2- | 
[V:4] F,2E,2 | 
[V:5] z4 | 
[V:1] G2G2 | 
[V:2] d4 | 
[V:3] c2B2 | 
[V:4] D,2D,2 | 
[V:5] G,,2G,,2 | 
[V:1] E2EA | 
[V:2] zAGF | 
[V:3] c4- | 
[V:4] C,>D,E,F, | 
[V:5] A,,>B,,C,F,, | 
[V:1] GA2G/F/ | 
[V:2] GCF/G/A/B/ | 
[V:3] c4- | 
[V:4] E,F,2E,/D,/ | 
[V:5] C,A,,F,,2 | 
[V:1] E2z2 | 
[V:2] c2AA | 
[V:3] c4- | 
[V:4] C,4 | 
[V:5] A,,3A,, | 
[V:1] ccc2 | 
[V:2] A/B/c/d/e2 | 
[V:3] c4 | 
[V:4] E,2E,2 | 
[V:5] A,,2A,,2 | 
[V:1] B2BB | 
[V:2] e>dB2 | 
[V:3] G4- | 
[V:4] E,3E, | 
[V:5] E,,2E,,2 | 
[V:1] B2BG- | 
[V:2] zddd | 
[V:3] G4- | 
[V:4] D,2D,D,- | 
[V:5] G,,2G,,2 | 
[V:1] GF/E/D2 | 
[V:2] d>cB2 | 
[V:3] G4 | 
[V:4] D,D,D,2 | 
[V:5] B,,2B,,2 | 
[V:1] ccc2 | 
[V:2] ze2e | 
[V:3] A4- | 
[V:4] E,2E,2 | 
[V:5] A,,3A,, | 
[V:1] c/B/A/G/F2 | 
[V:2] c2Ad | 
[V:3] A4 | 
[V:4] E,2D,2 | 
[V:5] C,2D,2 | 
[V:1] FEE2- | 
[V:2] B2c2 | 
[V:3] G4 | 
[V:4] z2E,2 | 
[V:5] E,2C,2 | 
[V:1] ED/C/D2 | 
[V:2] A2zA | 
[V:3] F4 | 
[V:4] F,A,2D, | 
[V:5] D,4 | 
[V:1] E2zE | 
[V:2] BEG3/A/ | 
[V:3] E4- | 
[V:4] G,>A,B,C | 
[V:5] z4 | 
[V:1] G>ABc | 
[V:2] BcBE | 
[V:3] E4 | 
[V:4] B,E,zC, | 
[V:5] z4 | 
[V:1] BEBc- | 
[V:2] BcBe- | 
[V:3] E4- | 
[V:4] G,C,G,z | 
[V:5] z4 | 
[V:1] c/B/A2^G | 
[V:2] ecB2 | 
[V:3] E4- | 
[V:4] C,>D,E,2 | 
[V:5] z4 | 
[V:1] A4 | 
[V:2] A4 | 
[V:3] E4 | 
[V:4] C,3C, | 
[V:5] A,,2A,,2 | 
[V:1] E2GE | 
[V:2] c2Bc | 
[V:3] z4 | 
[V:4] C,C,E,C, | 
[V:5] A,,2G,,A,,- | 
[V:1] C2E3/F/ | 
[V:2] cB/A/G2 | 
[V:3] z4 | 
[V:4] A,,2z2 | 
[V:5] A,,C,2B,,/A,,/ | 
[V:1] G/A/Bc2 | 
[V:2] BBA2 | 
[V:3] z4 | 
[V:4] G,2E,C, | 
[V:5] G,,2A,,2 | 
[V:1] B2BB | 
[V:2] G2GB | 
[V:3] z4 | 
[V:4] G,B,>A,G,/F,/ | 
[V:5] E,,2zG,, | 
[V:1] A2G2 | 
[V:2] c>de2 | 
[V:3] z4 | 
[V:4] E,2C2 | 
[V:5] A,,>B,,C,2 | 
[V:1] G>ABc | 
[V:2] e2Be | 
[V:3] z4 | 
[V:4] B,3G, | 
[V:5] E,2E,E, | 
[V:1] Ac2B/A/ | 
[V:2] cAc3/d/ | 
[V:3] z4 | 
[V:4] A,2A,2 | 
[V:5] F,4 | 
[V:1] G4 | 
[V:2] e3d/c/ | 
[V:3] z4 | 
[V:4] B,4 | 
[V:5] E,4 | 
[V:1] G2G2 | 
[V:2] B2c2 | 
[V:3] z4 | 
[V:4] z2G,2 | 
[V:5] E,2E,2 | 
[V:1] F2ED- | 
[V:2] d2G/A/B/c/ | 
[V:3] z4 | 
[V:4] A,2CB,- | 
[V:5] D,2C,G,, | 
[V:1] DEF3/D/ | 
[V:2] dc2B | 
[V:3] z4 | 
[V:4] B,G,2F, | 
[V:5] B,,C,D,2 | 
[V:1] EG>Ac- | 
[V:2] ce2d/c/ | 
[V:3] z4 | 
[V:4] G,4- | 
[V:5] C,3B,,/A,,/ | 
[V:1] cB/A/B2 | 
[V:2] d3d | 
[V:3] z4 | 
[V:4] G,4 | 
[V:5] G,,4 | 
[V:1] A3A | 
[V:2] d2dd | 
[V:3] z4 | 
[V:4] F,3F, | 
[V:5] D,3D, | 
[V:1] B2GG | 
[V:2] d2ee | 
[V:3] z4 | 
[V:4] G,2E,E, | 
[V:5] G,,2C,C, | 
[V:1] GA2F | 
[V:2] ec2d | 
[V:3] z4 | 
[V:4] E,E,2F, | 
[V:5] C,A,,2D, | 
[V:1] FFG3/E/ | 
[V:2] ddB3/B/ | 
[V:3] z4 | 
[V:4] D,D,D,3/C,/ | 
[V:5] D,D,G,,3/G,,/ | 
[V:1] EEF2 | 
[V:2] ccA2 | 
[V:3] z4 | 
[V:4] C,C,C,2 | 
[V:5] A,,A,,F,,2 | 
[V:1] DD2D | 
[V:2] B2GG | 
[V:3] z4 | 
[V:4] B,,2D,D, | 
[V:5] G,,2B,,B,, | 
[V:1] C>DEF- | 
[V:2] Ac>BA- | 
[V:3] z4 | 
[V:4] E,A,>G,F, | 
[V:5] A,,>B,,C,D,- | 
[V:1] FE/D/G2 | 
[V:2] Ad2^c | 
[V:3] z4 | 
[V:4] D,A,2G, | 
[V:5] D,F,E,2 | 
[V:1] FAGE- | 
[V:2] d2Bc | 
[V:3] z4 | 
[V:4] A,2E,2 | 
[V:5] D,2E,C, | 
[V:1] ED/C/D2 | 
[V:2] A4- | 
[V:3] z4 | 
[V:4] F,2F,/G,/A,/B,/ | 
[V:5] D,3C,/B,,/ | 
[V:1] E4- | 
[V:2] A4 | 
[V:3] E4- | 
[V:4] C4 | 
[V:5] A,,4 | 
[V:1] E4- | 
[V:2] B2c2 | 
[V:3] E4- | 
[V:4] B,2A,2 | 
[V:5] G,,2A,,2 | 
[V:1] E4 |]  
[V:2] B4 |]  
[V:3] E4 |]  
[V:4] G,4 |]  
[V:5] E,,4 |]  


